svg/fluentui-system-icons/ic_fluent_weather_blowing_snow_48_regular.svg

<svg width="48" height="48" viewBox="0 0 48 48" fill="none" xmlns="http://www.w3.org/2000/svg">
<path d="M22.9988 7C18.6975 7 15.1661 10.4066 15.0009 14.702C14.9744 15.3918 15.5121 15.9725 16.202 15.9991C16.8918 16.0256 17.4725 15.4879 17.4991 14.798C17.6128 11.8422 20.0436 9.5 22.9988 9.5C26.0367 9.5 28.5 11.9627 28.5 15C28.5 18.0376 26.0376 20.5 23 20.5H5.25C4.55964 20.5 4 21.0596 4 21.75C4 22.4404 4.55964 23 5.25 23H23C27.4183 23 31 19.4183 31 15C31 10.5814 27.4168 7 22.9988 7ZM37.987 18.5C35.2263 18.5 32.8045 20.3779 32.1334 23.0624L32.0373 23.4468C31.8699 24.1166 32.2771 24.7952 32.9468 24.9627C33.6166 25.1301 34.2952 24.7229 34.4627 24.0532L34.5588 23.6687C34.9501 22.1034 36.3671 21 37.987 21C39.9244 21 41.5 22.5714 41.5 24.5C41.5 26.433 39.933 28 38 28H5.25C4.55964 28 4 28.5596 4 29.25C4 29.9404 4.55964 30.5 5.25 30.5H30C31.6419 30.5 33 31.8676 33 33.5395C33 35.1682 31.6769 36.5 30.0783 36.5C28.9716 36.5 27.9599 35.8747 27.465 34.8849L27.368 34.691C27.0593 34.0735 26.3085 33.8232 25.691 34.132C25.0735 34.4407 24.8232 35.1915 25.132 35.809L25.2289 36.0029C26.1473 37.8397 28.0247 39 30.0783 39C33.0876 39 35.5 36.5188 35.5 33.5395C35.5 32.4237 35.1665 31.3768 34.5921 30.5H38C41.3137 30.5 44 27.8137 44 24.5C44 21.1818 41.2963 18.5 37.987 18.5ZM18 41C19.1046 41 20 40.1046 20 39C20 37.8954 19.1046 37 18 37C16.8954 37 16 37.8954 16 39C16 40.1046 16.8954 41 18 41ZM10 10C10 11.1046 9.10457 12 8 12C6.89543 12 6 11.1046 6 10C6 8.89543 6.89543 8 8 8C9.10457 8 10 8.89543 10 10ZM38 14C39.1046 14 40 13.1046 40 12C40 10.8954 39.1046 10 38 10C36.8954 10 36 10.8954 36 12C36 13.1046 36.8954 14 38 14Z" fill="#212121"/>
</svg>

<svg xmlns="http://www.w3.org/2000/svg" width="48" height="48"><path d="M22.999 7c-4.301 0-7.833 3.407-7.998 7.702a1.25 1.25 0 0 0 2.498.096A5.51 5.51 0 0 1 23 9.5a5.501 5.501 0 0 1 .001 11H5.25a1.25 1.25 0 1 0 0 2.5H23a8 8 0 1 0-.001-16Zm14.988 11.5a6.035 6.035 0 0 0-5.854 4.562l-.096.385a1.25 1.25 0 0 0 2.426.606l.096-.384A3.535 3.535 0 0 1 37.987 21a3.511 3.511 0 0 1 3.513 3.5A3.5 3.5 0 0 1 38 28H5.25a1.25 1.25 0 1 0 0 2.5H30c1.642 0 3 1.368 3 3.04 0 1.628-1.323 2.96-2.922 2.96a2.922 2.922 0 0 1-2.613-1.615l-.097-.194a1.25 1.25 0 1 0-2.236 1.118l.097.194A5.422 5.422 0 0 0 30.079 39c3.009 0 5.421-2.481 5.421-5.46a5.536 5.536 0 0 0-.908-3.04H38a6 6 0 0 0 6-6c0-3.318-2.704-6-6.013-6ZM18 41a2 2 0 1 0 0-4 2 2 0 0 0 0 4Zm-8-31a2 2 0 1 1-4 0 2 2 0 0 1 4 0Zm28 4a2 2 0 1 0 0-4 2 2 0 0 0 0 4Z"/></svg>
